!!!COM: Charles Gounod
!!!CNT: Francais
!!!TXO: Francais
!!!OTL: "Au rossignol"
!!!LYR: Lamartine
!!!OPR: 
!!!OPS: Op. 
!!!ONM: No.
!!!ENC: Emily Thomas
!!!YOR: CD Sheet Music French Art Songs, The Ultimate Collection
!!!YOR: CD Sheet Music, LLC 2003
!!!ODT: 1867/
!!NB: Vocal melody and text encoded.
**kern	**silbe
=1	=1
*clefG2	*
*k[f#]	*
*M4/4	*
*MM[Andante. (calme et tranquille)]	*
1r	.
=2	=2
1r	.
=3	=3
1r	.
=4	=4
1r	.
=5	=5
1r	.
=6	=6
1r	.
=7	=7
1r	.
=8	=8
{4.b	{Quand
8b	ta
4.b	voix
8b	ce/-
=9	=9
4b	-les-
8b	-te
16r	.
16b	pre/-
4cc	-lude
8.b	Au
16a	si-
=10	=10
4dd	-len-
4g	-ce
4a	des
8b	bel-
8cc	-les
=11	=11
[2b	nuits,
8b]}	|}
8r	.
{8g	{Barde
8b	ai-
=12	=12
4.dd	-le/
8dd	de
4cc#	ma
8cc#	so-
8cc#	-li-
=13	=13
4ee	-tu-
4dd}	-de}
8r	.
{8d	{Tu
8b	ne
8g	said
=14	=14
2e	pas
4a	que
8a	je
8b	te
=15	=15
[4a	suis
8a]}	|}
8r	.
8r	.
{8dd	{Tu
8ccn	ne
8b	sais
=16	=16
[4a	pas
8a]}	|}
8r	.
8r	.
{8dd	{que
8cc	mon
8b	o-
=17	=17
4b	-reil-
4a}	-le}
4r	.
{8g#	{Sus-
8g#	-pen-
=18	=18
4a	-due
8a	a\
8cc	ta
4.ee	don-
8b	-ce
=19	=19
[2cc	voix
8cc]}	|}
8r	.
{[4cc	{De
=20	=20
8cc]	|
8cc	l'har-
8cc	-mon-
8cc	-i-
4b	-en-
8b	-se
8b	mer-
=21	=21
4ee	-veil-
4a}	-le}
4r	.
{4gg	{S'en-
=22	=22
4gg	-i-
8a	-vre
8b	long-
4cc#	-temps
8b	sous
8a	les
=23	=23
[1dd	bois!
=24	=24
4dd]}	|}
4r	.
2r	.
=25	=25
{4b	{Tu
8b	ne
8b	sais
2b	pas
=26	=26
4b	que
8ee	mon
8dd	hal-
8dd	-ein-
8cc	-e
8b	Sur
8a	mes
=27	=27
4g	le\-
4d	-vres
4a	n'o-
8b	-se
8cc	pas-
=28	=28
[2b	-ser!
8b]}	|}
8r	.
{8b	{Que
8cc#	mon
=29	=29
8.dd#	pied
16b	mu-
[4b	-et
8b]}	|}
8r	.
{8b	{foule
8cc#	a\
=30	=30
4ddn	pei-
4b}	-ne}
4r	.
{4dd	{La
=31	=31
4ccn	feuil-
8cc	-le
8cc	qu'il
4b	craint
8b	de
8b	frois-
=32	=32
[4a	-ser!
8a]}	|}
8r	.
4r	.
{8a	{Que
8a	mon
=33	=33
8.b	pied
16a	mu-
[4a	-et
8a]}	|}
8r	.
{8.a	{foule
16a	a\
=34	=34
4een	pei-
8dd}	-ne}
{8b	{La
4g	feuil-
8a	-le
8b	qu'il
=35	=35
2e	craint
4.f#	de
8a	frois-
=36	=36
[2g	-ser!
4g]}	|}
4r	.
=37	=37
1r	.
=38	=38
1r	.
=39	=39
1r	.
=40	=40
1r	.
=41	=41
1r	.
=42	=42
1r	.
=43	=43
{4.b	{Ah!
8b	ta
4.b	voix
8b	tou-
=44	=44
4b	-chante
8b	ou
8b	sub-
4cc	-lime
8b	Est
8a	trop
=45	=45
4dd	pu-
4g	-re
4a	pour
8b	ce
8cc	bas
=46	=46
[4b	lieu!
8b]}	|}
8r	.
8r	.
{8g	{Cet-
8g	-te
8b	mu-
=47	=47
2dd	-si-
4cc#	-que
8cc#	qui
8cc#	t'a
=48	=48
4ee	-ni-
4dd}	-me}
8r	.
{8dd	{Est
8b	un
8g	in-
=49	=49
2e	-stinct
4a	qui
8a	monte
8b	a\
=50	=50
[4a	Dieu!
8a]}	|}
8r	.
8r	.
{8dd	{Tu
8ccn	prends
8b	les
=51	=51
[4a	sons
8a]}	|}
8r	.
8r	.
{8dd	{que
8cc	tu
8b	re-
=52	=52
4b	-cue-
4a}	-illes}
4r	.
{4g#	{Dans
=53	=53
8a	les
8a	gaz-
8a	-oui-
8cc	-lle-
4.ee	-ments
8b	des
=54	=54
[2cc	flots
8cc]}	|}
8r	.
{4cc	{Dans
=55	=55
8cc	les
8cc	fre/-
8cc	-mis-
8cc	-se-
4.b	-ments
8b	des
=56	=56
4ee	feu-
4a}	-illes,}
4r	.
{[4gg	{Dans
=57	=57
8gg]	|
8a	les
8a	bruits
8b	mon-
4cc#	-rants
8b	des
8a	e-
=58	=58
[1dd	-chos!
=59	=59
4dd]}	|}
4r	.
2r	.
=61	=61
{8b	{Et
8b	de
8b	ces
8b	doux
4b}	sons}
{8b	{ou\
8b	se
=62	=62
4b	me^-
8ee	-le
8dd	l'in-
8dd	-stinct
8cc	|
8b	ce/-
8a	|
=63	=63
4g	-les-
4d}	-te}
{4a	{qui
8b	|
8cc	t'ins-
=64	=64
[4b	-truit
8b]}	|}
8r	.
8r	.
{8b	{Dieu
8b	fit
8cc#	ta
=65	=65
[4dd#	voix
8dd#]}	|}
8r	.
8r	.
{8b	{l^
8b	Phil-
8cc#	-o-
=66	=66
4ddn	me\-
4b}	-le!}
4r	.
{8.dd	{Et
16dd	tu
=67	=67
4.ccn	fais
8cc	tou
4b	hymne
8b	a\
8b	la
=68	=68
[4a	nuit
8a]}	|}
8r	.
4r	.
{8a	{Phil-
8a	-o-
=69	=69
4b	-me\-
4a}	-le!}
4r	.
{8a	{Phil-
8a	-o-
=70	=70
4een	-me\-
8dd	-le
8b	Tu
4g	fais
8a	ton
8b	|
=71	=71
2e	hymne
4.f#	a\
8a	la
=72	=72
[2g	nuit!
4g]}	|}
4r	.
=73	=73
1r	.
=74	=74
1r	.
=75	=75
1r	.
=76	=76
1r	.
=77	=77
1r	.
=78	=78
1r	.
=79	=79
{[4b	{Ah!
8b]	|
8r	.
4b	ces
8b	dou-
8b	-ces
=80	=80
4b	sce\-
8b	-nes
8b	noc-
8cc	-turn-
8cc}	-es,}
{8b	{Ces
8a	pi-
=81	=81
4.dd	-eux
8g	mys-
4a	-te\-
8b	-res
8cc	du
=82	=82
[2b	soir
8b]}	|}
8r	.
{8g	{Et
8b	ces
=83	=83
4.dd	fleurs
8dd	qui
4cc#	pen-
8cc#	-chent
8cc#	leurs
=84	=84
4ee	ur-
4dd}	-nes}
4r	.
{8b	{Com-
8g	-me
=85	=85
4e	l'ur-
4e	-ne
4a	d'un
8a	en-
8b	-cen-
=86	=86
[4a	-soir,
8a]}	|}
8r	.
8r	.
{8dd	{Et
8ccn	cet-
8b	-te
=87	=87
[4a	voix
8a]}	|}
8r	.
8r	.
{8dd	{mys-
8cc	-te/r-
8b	-i-
=88	=88
4b	-eu-
4a}	-se}
4r	.
{4g#	{Qu'e/-
=89	=89
4a	-cou-
8a	-tent
8cc	les
4ee	an-
8ee	-ges
8b	et
=91	=91
[2cc	moi
8cc]}	|}
8r	.
{8cc	{Ce
8cc	sou-
=92	=92
4cc	-pir
8cc	de
8cc	la
4.b	nuit
8b	pi-
=93	=93
4ee	-eu-
4a}	-se,}
4r	.
{4gg	{Oi-
=94	=94
8gg	-seau
8a	me/-
8a	-lod-
8b	-i-
4cc#	-eux,
8b	c'est
8a	|
=95	=95
[1dd	toi!
=96	=96
4dd]}	|}
4r	.
2r	.
=97	=97
{[4b	{Oh!
8b]	|
8r	.
4b	me^-
8b	-le
8b	ta
=98	=98
4b	voix
8ee	a\
8dd	la
8dd	mein-
8cc	|
8b}	-ne!}
{8a	{La
=99	=99
8g	me^me
8d	o-
[4d	-reil-
8d]	|
8a	-le
8b	nous
8cc	en-
=100	=100
[4b	-tend,
8b]}	|}
8r	.
8r	.
{8b	{Mais
8b	ta
8cc#	pri-
=101	=101
4dd#	-e\-
4b}	-re}
8r	.
{8b	{a-
8b	-e/-
8cc#	-ri-
=102	=102
4ddn	-en-
4b}	-ne}
4r	.
{8dd	{Mon-
8dd	-te
=103	=103
4.ccn	mieux
8cc	au
4b	Ciel
8b	qui
8b	l'at-
=104	=104
[4a	-tend
8a]}	|}
8r	.
4r	.
{8a	{Ta
8a	pri-
=105	=105
4b	-e\-
4a}	-re,}
4r	.
{8a	{ta
8a	pri-
=106	=106
4een	-e\-
8dd}	-re,}
8r	.
{8gg	{mon-
8dd	-te
8b	mieux
8g	au
=107	=107
2ee	Ciel
4.f#	qui
8a	l'at-
=108	=108
[2g	-tend!
4g]}	|}
4r	.
==	==
*-	*-
